icons/syncpack.svg

<svg xmlns="http://www.w3.org/2000/svg" viewBox="0 0 916 817"><g fill="#00ba96" data-iconColor="Syncpack"><path d="M426.07 1.86c34.73-3.46 69.83-.73 104.09 5.53 23.78 4.24 46.92 11.47 69.6 19.69 16.17 6.35 31.86 13.83 47.29 21.8 29.15 16.03 56.72 35.27 80.34 58.79 12 11.98 23.67 24.31 34.36 37.47 11.9 15.1 22.49 31.19 32.37 47.67 17.18 28.26 28.85 59.51 37.86 91.23 4.3 16.29 8.42 32.96 8.34 49.91-4.61-3.43-8.27-7.9-12.13-12.1-24.34-27.45-47.61-55.83-71.38-83.76-10.73-12.24-20.94-25.01-32.69-36.3-9.26 7.92-16.06 18.12-23.89 27.34-22.42 26.79-44.84 53.6-67.56 80.14-2.56-10.01-7.87-18.99-13.33-27.65-8.82-13.49-19.01-26.17-30.62-37.37-21.29-20.95-48.28-35.61-76.88-43.83-13.46-3.17-27.11-5.69-40.92-6.67-18.1-1.51-36.31.64-54.01 4.45-15.2 2.53-29.47 8.76-43.27 15.41-26.42 12.96-48.95 33.2-65.73 57.28-9.29 13.31-17.54 27.62-22 43.33 31.19.13 62.39-.17 93.59.02-8.87 12.69-19.2 24.28-28.98 36.26-25.16 30.13-50.8 59.85-75.97 89.96-9.89 12.44-19.81 24.85-30.27 36.81-16.63 21.06-34.39 41.18-52.04 61.37a82 82 0 0 1-7.91-7.02c-12.2-12.16-23.52-25.16-34.91-38.07-36.88-42.51-72.64-85.98-108.76-129.14-9.79-11.56-19.37-23.31-29.7-34.39-3.91-4.51-7.77-9.09-10.96-14.14v-.09c27.48-.03 54.95-.31 82.43-.74 5.69-40.05 19.06-78.84 38.09-114.48 14.48-25.69 30.71-50.59 50.49-72.56 17.86-19.54 37.37-37.66 58.94-53.06C287.07 33.4 355.68 7.78 426.07 1.86"/><path d="M723.52 278.52c6.97 5.28 12.72 11.94 18.78 18.2 24.52 26.6 47.68 54.39 71.06 81.99 25.35 30.25 50.47 60.7 75.96 90.83 8.66 10.74 18.99 20.13 26.54 31.75-27.5.17-55 .33-82.49.81-7.29 51.03-26.81 100.03-55.23 142.93-7.31 11.23-15.02 22.22-23.51 32.6-38.89 47.22-89.62 84.39-145.95 108.12-53.03 22.54-111.13 33.16-168.7 30.66-25.01-1.69-49.96-5.01-74.35-10.89-18.07-4.61-35.89-10.24-53.3-16.9-20.37-8.56-40.51-17.89-59.36-29.47-24.31-14.65-47.12-31.89-67.02-52.16-11-11.04-21.66-22.44-31.52-34.51-11.9-15.04-22.49-31.08-32.36-47.5-17.54-28.72-29.41-60.53-38.51-92.82-4.26-15.94-7.93-32.24-8.25-48.81 4.02 2.28 6.79 6.1 9.97 9.35 26.33 29.44 51.24 60.11 76.94 90.1 9.67 10.97 18.81 22.5 29.51 32.51 8.09-6.88 14.25-15.61 20.95-23.77 23.31-28.03 46.77-55.95 70.46-83.67 2.74 10.7 8.59 20.24 14.49 29.45 17.8 26.73 41.31 50.23 70.09 64.95 14.92 7.51 30.6 13.96 47.13 16.8 18.39 3.86 37.32 5.88 56.09 4.18 13-1.08 25.82-3.67 38.51-6.6 28.24-8.68 55.12-23.09 76.17-44.05 11.91-11.67 22.12-25.01 30.69-39.3 5.69-9.54 10.6-19.65 13.55-30.4-31.17.01-62.34.12-93.51-.01 6.34-9.33 13.78-17.87 20.92-26.59 25.22-30.43 50.99-60.4 76.46-90.61 11.58-13.47 22.04-27.86 33.84-41.15 9.47-11.22 18.43-22.86 28.07-33.93 9.15-10.82 18.67-21.32 27.88-32.09"/></g></svg>

<!--
  - The MIT License (MIT)
  -
  - Copyright (c) 2015-2024 Elior "Mallowigi" Boukhobza
  -
  - Permission is hereby granted, free of charge, to any person obtaining a copy
  - of this software and associated documentation files (the "Software"), to deal
  - in the Software without restriction, including without limitation the rights
  - to use, copy, modify, merge, publish, distribute, sublicense, and/or sell
  - copies of the Software, and to permit persons to whom the Software is
  - furnished to do so, subject to the following conditions:
  -
  - The above copyright notice and this permission notice shall be included in all
  - copies or substantial portions of the Software.
  -
  - THE SOFTWARE IS PROVIDED "AS IS", WITHOUT WARRANTY OF ANY KIND, EXPRESS OR
  - IMPLIED, INCLUDING BUT NOT LIMITED TO THE WARRANTIES OF MERCHANTABILITY,
  - FITNESS FOR A PARTICULAR PURPOSE AND NONINFRINGEMENT. IN NO EVENT SHALL THE
  - AUTHORS OR COPYRIGHT HOLDERS BE LIABLE FOR ANY CLAIM, DAMAGES OR OTHER
  - LIABILITY, WHETHER IN AN ACTION OF CONTRACT, TORT OR OTHERWISE, ARISING FROM,
  - OUT OF OR IN CONNECTION WITH THE SOFTWARE OR THE USE OR OTHER DEALINGS IN THE
  - SOFTWARE.
  -
  -->

<svg xmlns="http://www.w3.org/2000/svg" viewBox="0 0 916 817" width="16px" height="16px">
  <g fill="#00ba96" data-iconColor="Syncpack">
    <path
        d="M 426.07 1.86 C 460.80 -1.60 495.90 1.13 530.16 7.39 C 553.94 11.63 577.08 18.86 599.76 27.08 C 615.93 33.43 631.62 40.91 647.05 48.88 C 676.20 64.91 703.77 84.15 727.39 107.67 C 739.39 119.65 751.06 131.98 761.75 145.14 C 773.65 160.24 784.24 176.33 794.12 192.81 C 811.30 221.07 822.97 252.32 831.98 284.04 C 836.28 300.33 840.40 317.00 840.32 333.95 C 835.71 330.52 832.05 326.05 828.19 321.85 C 803.85 294.40 780.58 266.02 756.81 238.09 C 746.08 225.85 735.87 213.08 724.12 201.79 C 714.86 209.71 708.06 219.91 700.23 229.13 C 677.81 255.92 655.39 282.73 632.67 309.27 C 630.11 299.26 624.80 290.28 619.34 281.62 C 610.52 268.13 600.33 255.45 588.72 244.25 C 567.43 223.30 540.44 208.64 511.84 200.42 C 498.38 197.25 484.73 194.73 470.92 193.75 C 452.82 192.24 434.61 194.39 416.91 198.20 C 401.71 200.73 387.44 206.96 373.64 213.61 C 347.22 226.57 324.69 246.81 307.91 270.89 C 298.62 284.20 290.37 298.51 285.91 314.22 C 317.10 314.35 348.30 314.05 379.50 314.24 C 370.63 326.93 360.30 338.52 350.52 350.50 C 325.36 380.63 299.72 410.35 274.55 440.46 C 264.66 452.90 254.74 465.31 244.28 477.27 C 227.65 498.33 209.89 518.45 192.24 538.64 C 189.46 536.47 186.81 534.13 184.33 531.62 C 172.13 519.46 160.81 506.46 149.42 493.55 C 112.54 451.04 76.78 407.57 40.66 364.41 C 30.87 352.85 21.29 341.10 10.96 330.02 C 7.05 325.51 3.19 320.93 0.00 315.88 L 0.00 315.79 C 27.48 315.76 54.95 315.48 82.43 315.05 C 88.12 275.00 101.49 236.21 120.52 200.57 C 135.00 174.88 151.23 149.98 171.01 128.01 C 188.87 108.47 208.38 90.35 229.95 74.95 C 287.07 33.40 355.68 7.78 426.07 1.86 Z"/>
    <path
        d="M 723.52 278.52 C 730.49 283.80 736.24 290.46 742.30 296.72 C 766.82 323.32 789.98 351.11 813.36 378.71 C 838.71 408.96 863.83 439.41 889.32 469.54 C 897.98 480.28 908.31 489.67 915.86 501.29 C 888.36 501.46 860.86 501.62 833.37 502.10 C 826.08 553.13 806.56 602.13 778.14 645.03 C 770.83 656.26 763.12 667.25 754.63 677.63 C 715.74 724.85 665.01 762.02 608.68 785.75 C 555.65 808.29 497.55 818.91 439.98 816.41 C 414.97 814.72 390.02 811.40 365.63 805.52 C 347.56 800.91 329.74 795.28 312.33 788.62 C 291.96 780.06 271.82 770.73 252.97 759.15 C 228.66 744.50 205.85 727.26 185.95 706.99 C 174.95 695.95 164.29 684.55 154.43 672.48 C 142.53 657.44 131.94 641.40 122.07 624.98 C 104.53 596.26 92.66 564.45 83.56 532.16 C 79.30 516.22 75.63 499.92 75.31 483.35 C 79.33 485.63 82.10 489.45 85.28 492.70 C 111.61 522.14 136.52 552.81 162.22 582.80 C 171.89 593.77 181.03 605.30 191.73 615.31 C 199.82 608.43 205.98 599.70 212.68 591.54 C 235.99 563.51 259.45 535.59 283.14 507.87 C 285.88 518.57 291.73 528.11 297.63 537.32 C 315.43 564.05 338.94 587.55 367.72 602.27 C 382.64 609.78 398.32 616.23 414.85 619.07 C 433.24 622.93 452.17 624.95 470.94 623.25 C 483.94 622.17 496.76 619.58 509.45 616.65 C 537.69 607.97 564.57 593.56 585.62 572.60 C 597.53 560.93 607.74 547.59 616.31 533.30 C 622.00 523.76 626.91 513.65 629.86 502.90 C 598.69 502.91 567.52 503.02 536.35 502.89 C 542.69 493.56 550.13 485.02 557.27 476.30 C 582.49 445.87 608.26 415.90 633.73 385.69 C 645.31 372.22 655.77 357.83 667.57 344.54 C 677.04 333.32 686.00 321.68 695.64 310.61 C 704.79 299.79 714.31 289.29 723.52 278.52 Z"/>
  </g>
</svg>
